build/dist/assets/images/services/service6.svg

<svg width="31" height="44" viewBox="0 0 31 44" fill="none" xmlns="http://www.w3.org/2000/svg">
<path fill-rule="evenodd" clip-rule="evenodd" d="M3.53409 3.72936C5.07907 1.65616 7.32783 0 10.0454 0C12.569 0 14.3291 1.06956 15.6678 2.55786L14.4358 3.75501C13.3607 2.55984 12.0268 1.75299 10.0454 1.75299C8.02855 1.75299 6.22157 2.98576 4.86748 4.80281C2.80894 7.56518 1.68659 10.7828 1.68659 14.896C1.68659 17.1035 2.51925 19.223 4.00575 20.7997C5.80126 22.704 6.80693 25.264 6.8069 27.9303V36.4352C6.8069 39.645 9.31037 42.247 12.3985 42.247C14.1291 42.247 15.6755 41.4309 16.7025 40.1457L18 41.2657C16.6663 42.9348 14.6517 44 12.3985 44C8.37889 44 5.12031 40.6131 5.12031 36.4352V27.9303C5.12034 25.7228 4.28771 23.6033 2.80115 22.0266L2.80115 22.0266C1.00571 20.1223 0 17.5623 0 14.896C0 10.4075 1.23886 6.80935 3.53408 3.72936L3.53409 3.72936Z" fill="#009B97"/>
<path fill-rule="evenodd" clip-rule="evenodd" d="M3.9424 11.237C2.69703 8.84757 2.4489 5.30955 4.67003 3L5.27875 3.61097C3.41165 5.55239 3.55384 8.63658 4.69563 10.8273C5.6401 12.6394 7.0907 14.0827 8.5886 15.5731C8.92215 15.9049 9.25805 16.2391 9.59123 16.5803C11.3923 18.4244 13.1919 20.6488 13.5941 23.3632L13.1722 23.4284L13.5941 23.3632C13.9201 25.564 13.2315 27.8936 11.7676 29.5422L11.4516 29.2494L11.7676 29.5422C10.2875 31.209 7.89691 32 5.76493 32V31.1282C7.72836 31.1282 9.86014 30.3928 11.1356 28.9565C12.4271 27.502 13.038 25.4353 12.7503 23.4936C12.3923 21.0774 10.7737 19.0253 8.98715 17.196C8.67447 16.8759 8.35244 16.5559 8.02735 16.2329C6.52431 14.7396 4.95563 13.1811 3.9424 11.237ZM25.995 3.88871L25.9966 3.89089L26 3.89551L25.3153 4.41578L25.3103 4.40898L25.3095 4.40789L25.3087 4.4068L25.2998 4.39433L25.9877 3.87842L25.995 3.88871Z" fill="#009B97"/>
<path fill-rule="evenodd" clip-rule="evenodd" d="M13.6019 3.72936C15.1765 1.65615 17.4684 0 20.238 0C23.2842 0 25.2171 1.497 26.643 3.36814C26.6432 3.36829 26.6435 3.36843 26.6438 3.36858C26.6523 3.37911 26.6635 3.39338 26.6662 3.39699L26.6706 3.4028L26.6735 3.40671L26.6746 3.40822L26.6755 3.40953L26.6765 3.41094L26.6776 3.41245L26.6777 3.41258L26.6778 3.41271L26.678 3.4129L26.6787 3.41395L26.6799 3.41564L26.6861 3.42413L26.6864 3.42453L26.6863 3.42461C26.6862 3.42448 26.6861 3.42434 26.686 3.42421L26.6857 3.42445C26.6858 3.42459 26.6859 3.42472 26.686 3.42485L26.2135 3.78076L26.6862 3.42518C26.6878 3.42731 26.6894 3.42943 26.691 3.43156C26.6895 3.42926 26.6883 3.42747 26.6876 3.42648C26.6872 3.42596 26.6869 3.42545 26.6865 3.42496L26.6867 3.42482L26.6956 3.43718L26.6954 3.43737C26.697 3.43954 26.6986 3.44171 26.7003 3.44388L26.7046 3.4496L26.7088 3.4554C30.4475 8.60839 31.7944 15.1608 30.5477 21.428C30.2193 23.0788 30.0538 24.7591 30.0538 26.4436V36.4352C30.0538 40.6131 26.7328 44 22.6361 44C18.5395 44 15.2184 40.6131 15.2184 36.4352V27.9303C15.2185 25.7228 14.3699 23.6033 12.8548 22.0266C11.0249 20.1223 9.99997 17.5623 10 14.896C10 10.4075 11.2626 6.80935 13.6019 3.72936ZM26.6951 3.43761L25.3127 4.47743C25.3173 4.4832 25.323 4.49043 25.3279 4.49644C25.3281 4.49658 25.3284 4.49673 25.3286 4.49687L26.0179 3.97675L25.3423 4.50433C25.8786 4.78752 26.8257 4.10761 26.7078 3.45693C26.7076 3.45676 26.7075 3.45659 26.7074 3.45642C26.705 3.45261 26.7022 3.44843 26.6996 3.44442C26.698 3.44206 26.6965 3.43975 26.6951 3.43761ZM25.3312 4.50392C24.1145 2.88538 22.6275 1.75299 20.238 1.75299C18.1826 1.75299 16.3409 2.98577 14.9608 4.80281C12.8628 7.56518 11.7189 10.7828 11.7189 14.896C11.7189 17.1035 12.5675 19.223 14.0825 20.7997C15.9124 22.704 16.9374 25.264 16.9373 27.9303V36.4352C16.9373 39.645 19.4888 42.247 22.6361 42.247C25.7834 42.247 28.3349 39.645 28.3349 36.4352V26.4436C28.3349 24.6421 28.5118 22.845 28.8631 21.0794C30.0156 15.286 28.7683 9.24464 25.3312 4.50392ZM26.6865 3.42496C26.6864 3.42484 26.6864 3.42473 26.6863 3.42461L26.686 3.42485C26.686 3.42496 26.6861 3.42507 26.6862 3.42518L26.6865 3.42496Z" fill="#009B97"/>
<path fill-rule="evenodd" clip-rule="evenodd" d="M13.9713 11.237C12.6878 8.84758 12.432 5.30955 14.7211 3L15.3484 3.61097C13.4242 5.55239 13.5708 8.63657 14.7475 10.8273L14.7475 10.8273C15.7209 12.6394 17.2158 14.0827 18.7595 15.5731C19.1032 15.9049 19.4494 16.2391 19.7928 16.5803C21.6489 18.4244 23.5035 20.6488 23.9179 23.3632C24.254 25.564 23.5444 27.8936 22.0356 29.5422C20.5104 31.209 18.0467 32 15.8495 32V31.1282C17.873 31.1282 20.0699 30.3928 21.3843 28.9565L21.71 29.2494L21.3843 28.9565C22.7154 27.5019 23.3449 25.4354 23.0484 23.4937L23.0484 23.4936C22.6795 21.0774 21.0114 19.0253 19.1702 17.196C18.848 16.8759 18.5161 16.5559 18.1811 16.2329C16.6321 14.7396 15.0155 13.1811 13.9713 11.237Z" fill="#009B97"/>
</svg>

<svg width="31" height="44" fill="none" xmlns="http://www.w3.org/2000/svg"><path fill-rule="evenodd" clip-rule="evenodd" d="M3.534 3.73C5.08 1.655 7.328 0 10.045 0c2.524 0 4.284 1.07 5.623 2.558l-1.232 1.197c-1.075-1.195-2.41-2.002-4.39-2.002-2.017 0-3.824 1.233-5.179 3.05-2.058 2.762-3.18 5.98-3.18 10.093 0 2.207.832 4.327 2.319 5.904 1.795 1.904 2.8 4.464 2.8 7.13v8.505c0 3.21 2.504 5.812 5.593 5.812 1.73 0 3.277-.816 4.304-2.101L18 41.266C16.666 42.935 14.652 44 12.399 44c-4.02 0-7.279-3.387-7.279-7.565V27.93c0-2.207-.832-4.327-2.319-5.903C1.006 20.122 0 17.562 0 14.896c0-4.489 1.239-8.087 3.534-11.167z" fill="#009B97"/><path fill-rule="evenodd" clip-rule="evenodd" d="M3.942 11.237C2.697 8.847 2.45 5.31 4.67 3l.609.611c-1.867 1.941-1.725 5.026-.583 7.216.944 1.812 2.395 3.256 3.893 4.746.333.332.67.666 1.002 1.007 1.801 1.844 3.6 4.069 4.003 6.783l-.422.065.422-.065c.326 2.201-.362 4.53-1.826 6.18l-.316-.294.316.293C10.288 31.21 7.897 32 5.765 32v-.872c1.963 0 4.095-.735 5.37-2.172 1.292-1.454 1.903-3.52 1.615-5.462-.358-2.417-1.976-4.469-3.763-6.298-.313-.32-.635-.64-.96-.963-1.503-1.493-3.071-3.052-4.085-4.996zm22.053-7.348l.002.002.003.005-.685.52-.005-.007v-.001l-.001-.001-.01-.013.689-.516.007.01z" fill="#009B97"/><path fill-rule="evenodd" clip-rule="evenodd" d="M13.602 3.73C15.177 1.655 17.468 0 20.238 0c3.046 0 4.98 1.497 6.405 3.368l.023.029.005.006.003.004v.001l.002.002.002.002v.002l.002.002.006.008-.473.357.473-.356.005.007a.188.188 0 00-.003-.006l-.002-.001.01.012a.277.277 0 00.004.007l.005.006.004.005c3.739 5.153 5.085 11.706 3.839 17.973a25.71 25.71 0 00-.494 5.016v9.991c0 4.178-3.321 7.565-7.418 7.565-4.096 0-7.418-3.387-7.418-7.565V27.93a8.522 8.522 0 00-2.363-5.903A10.293 10.293 0 0110 14.896c0-4.489 1.263-8.087 3.602-11.167zm13.093-.292l-1.382 1.04.015.018.69-.52-.676.528c.537.284 1.484-.396 1.366-1.047l-.008-.013-.005-.006zm-1.364 1.066c-1.216-1.619-2.703-2.751-5.093-2.751-2.055 0-3.897 1.233-5.277 3.05-2.098 2.762-3.242 5.98-3.242 10.093 0 2.207.849 4.327 2.364 5.904a10.293 10.293 0 012.854 7.13v8.505c0 3.21 2.552 5.812 5.7 5.812 3.146 0 5.698-2.602 5.698-5.812v-9.991c0-1.802.177-3.599.528-5.365 1.153-5.793-.095-11.834-3.532-16.575zm1.355-1.079z" fill="#009B97"/><path fill-rule="evenodd" clip-rule="evenodd" d="M13.971 11.237c-1.283-2.39-1.539-5.927.75-8.237l.627.611c-1.924 1.941-1.777 5.026-.6 7.216.973 1.812 2.468 3.256 4.011 4.746.344.332.69.666 1.034 1.007 1.856 1.844 3.71 4.069 4.125 6.783.336 2.201-.374 4.53-1.882 6.18C20.51 31.208 18.046 32 15.849 32v-.872c2.024 0 4.22-.735 5.535-2.172l.326.293-.326-.293a6.716 6.716 0 001.664-5.462c-.368-2.417-2.037-4.469-3.878-6.298-.322-.32-.654-.64-.989-.963-1.549-1.493-3.166-3.052-4.21-4.996z" fill="#009B97"/></svg>
